images/graphics/banner_procentage.svg

<svg width="300" height="167" viewBox="0 0 300 167" fill="none" xmlns="http://www.w3.org/2000/svg">
<path d="M9.48 54.24C7.176 54.24 5.368 53.592 4.056 52.296C2.76 51 2.112 49.128 2.112 46.68V37.2H5.232V46.56C5.232 48.288 5.6 49.544 6.336 50.328C7.088 51.112 8.144 51.504 9.504 51.504C10.864 51.504 11.912 51.112 12.648 50.328C13.384 49.544 13.752 48.288 13.752 46.56V37.2H16.824V46.68C16.824 49.128 16.168 51 14.856 52.296C13.56 53.592 11.768 54.24 9.48 54.24ZM21.1935 54V37.2H28.1055C29.5935 37.2 30.8655 37.44 31.9215 37.92C32.9935 38.4 33.8175 39.088 34.3935 39.984C34.9695 40.88 35.2575 41.944 35.2575 43.176C35.2575 44.408 34.9695 45.472 34.3935 46.368C33.8175 47.264 32.9935 47.952 31.9215 48.432C30.8655 48.912 29.5935 49.152 28.1055 49.152H22.9215L24.3135 47.688V54H21.1935ZM24.3135 48.024L22.9215 46.512H27.9615C29.3375 46.512 30.3695 46.224 31.0575 45.648C31.7615 45.056 32.1135 44.232 32.1135 43.176C32.1135 42.104 31.7615 41.28 31.0575 40.704C30.3695 40.128 29.3375 39.84 27.9615 39.84H22.9215L24.3135 38.304V48.024ZM5.664 83V68.84H0.096V66.2H14.352V68.84H8.784V83H5.664ZM24.3311 83.24C23.0191 83.24 21.8111 83.024 20.7071 82.592C19.6031 82.16 18.6431 81.56 17.8271 80.792C17.0111 80.008 16.3791 79.096 15.9311 78.056C15.4831 77 15.2591 75.848 15.2591 74.6C15.2591 73.352 15.4831 72.208 15.9311 71.168C16.3791 70.112 17.0111 69.2 17.8271 68.432C18.6431 67.648 19.6031 67.04 20.7071 66.608C21.8111 66.176 23.0111 65.96 24.3071 65.96C25.6191 65.96 26.8191 66.176 27.9071 66.608C29.0111 67.04 29.9711 67.648 30.7871 68.432C31.6031 69.2 32.2351 70.112 32.6831 71.168C33.1311 72.208 33.3551 73.352 33.3551 74.6C33.3551 75.848 33.1311 77 32.6831 78.056C32.2351 79.112 31.6031 80.024 30.7871 80.792C29.9711 81.56 29.0111 82.16 27.9071 82.592C26.8191 83.024 25.6271 83.24 24.3311 83.24ZM24.3071 80.504C25.1551 80.504 25.9391 80.36 26.6591 80.072C27.3791 79.784 28.0031 79.376 28.5311 78.848C29.0591 78.304 29.4671 77.68 29.7551 76.976C30.0591 76.256 30.2111 75.464 30.2111 74.6C30.2111 73.736 30.0591 72.952 29.7551 72.248C29.4671 71.528 29.0591 70.904 28.5311 70.376C28.0031 69.832 27.3791 69.416 26.6591 69.128C25.9391 68.84 25.1551 68.696 24.3071 68.696C23.4591 68.696 22.6751 68.84 21.9551 69.128C21.2511 69.416 20.6271 69.832 20.0831 70.376C19.5551 70.904 19.1391 71.528 18.8351 72.248C18.5471 72.952 18.4031 73.736 18.4031 74.6C18.4031 75.448 18.5471 76.232 18.8351 76.952C19.1391 77.672 19.5551 78.304 20.0831 78.848C20.6111 79.376 21.2351 79.784 21.9551 80.072C22.6751 80.36 23.4591 80.504 24.3071 80.504Z" fill="white"/>
<path d="M32.247 112.861V97.928L77.457 37.1H100.747L56.496 97.928L45.673 94.777H121.16V112.861H32.247ZM83.896 133V112.861L84.581 94.777V76.83H105.542V133H83.896ZM168.898 134.644C161.043 134.644 154.011 132.726 147.8 128.89C141.589 124.963 136.703 119.3 133.141 111.902C129.579 104.504 127.798 95.5533 127.798 85.05C127.798 74.5467 129.579 65.596 133.141 58.198C136.703 50.8 141.589 45.183 147.8 41.347C154.011 37.4197 161.043 35.456 168.898 35.456C176.844 35.456 183.877 37.4197 189.996 41.347C196.207 45.183 201.093 50.8 204.655 58.198C208.217 65.596 209.998 74.5467 209.998 85.05C209.998 95.5533 208.217 104.504 204.655 111.902C201.093 119.3 196.207 124.963 189.996 128.89C183.877 132.726 176.844 134.644 168.898 134.644ZM168.898 115.875C172.643 115.875 175.885 114.825 178.625 112.724C181.456 110.623 183.648 107.29 185.201 102.723C186.845 98.1563 187.667 92.2653 187.667 85.05C187.667 77.8347 186.845 71.9437 185.201 67.377C183.648 62.8103 181.456 59.4767 178.625 57.376C175.885 55.2753 172.643 54.225 168.898 54.225C165.245 54.225 162.002 55.2753 159.171 57.376C156.431 59.4767 154.239 62.8103 152.595 67.377C151.042 71.9437 150.266 77.8347 150.266 85.05C150.266 92.2653 151.042 98.1563 152.595 102.723C154.239 107.29 156.431 110.623 159.171 112.724C162.002 114.825 165.245 115.875 168.898 115.875Z" fill="white"/>
<path d="M227.58 104L273.946 36.1H285.489L239.123 104H227.58ZM233.497 72.766C230.199 72.766 227.289 72.0223 224.767 70.535C222.245 68.983 220.24 66.8167 218.753 64.036C217.33 61.1907 216.619 57.8603 216.619 54.045C216.619 50.2297 217.33 46.9317 218.753 44.151C220.24 41.3703 222.245 39.204 224.767 37.652C227.289 36.1 230.199 35.324 233.497 35.324C236.795 35.324 239.705 36.1 242.227 37.652C244.749 39.204 246.721 41.3703 248.144 44.151C249.567 46.9317 250.278 50.2297 250.278 54.045C250.278 57.8603 249.567 61.1907 248.144 64.036C246.721 66.8167 244.749 68.983 242.227 70.535C239.705 72.0223 236.795 72.766 233.497 72.766ZM233.497 64.812C235.631 64.812 237.345 63.939 238.638 62.193C239.931 60.3823 240.578 57.6663 240.578 54.045C240.578 50.4237 239.931 47.74 238.638 45.994C237.345 44.1833 235.631 43.278 233.497 43.278C231.428 43.278 229.714 44.1833 228.356 45.994C227.063 47.74 226.416 50.4237 226.416 54.045C226.416 57.6017 227.063 60.2853 228.356 62.096C229.714 63.9067 231.428 64.812 233.497 64.812ZM279.572 104.776C276.339 104.776 273.429 104.032 270.842 102.545C268.32 100.993 266.348 98.8267 264.925 96.046C263.502 93.2007 262.791 89.8703 262.791 86.055C262.791 82.2397 263.502 78.9417 264.925 76.161C266.348 73.3803 268.32 71.214 270.842 69.662C273.429 68.11 276.339 67.334 279.572 67.334C282.935 67.334 285.877 68.11 288.399 69.662C290.921 71.214 292.893 73.3803 294.316 76.161C295.739 78.9417 296.45 82.2397 296.45 86.055C296.45 89.8703 295.739 93.2007 294.316 96.046C292.893 98.8267 290.921 100.993 288.399 102.545C285.877 104.032 282.935 104.776 279.572 104.776ZM279.572 96.822C281.706 96.822 283.42 95.949 284.713 94.203C286.006 92.3923 286.653 89.6763 286.653 86.055C286.653 82.4983 286.006 79.8147 284.713 78.004C283.42 76.1933 281.706 75.288 279.572 75.288C277.503 75.288 275.789 76.1933 274.431 78.004C273.138 79.75 272.491 82.4337 272.491 86.055C272.491 89.6763 273.138 92.3923 274.431 94.203C275.789 95.949 277.503 96.822 279.572 96.822Z" fill="white"/>
<path d="M235.348 136.34C233.489 136.34 231.778 136.034 230.214 135.422C228.65 134.81 227.29 133.96 226.134 132.872C224.978 131.761 224.083 130.469 223.448 128.996C222.813 127.5 222.496 125.868 222.496 124.1C222.496 122.332 222.813 120.711 223.448 119.238C224.083 117.742 224.978 116.45 226.134 115.362C227.29 114.251 228.65 113.39 230.214 112.778C231.778 112.166 233.478 111.86 235.314 111.86C237.173 111.86 238.873 112.166 240.414 112.778C241.978 113.39 243.338 114.251 244.494 115.362C245.65 116.45 246.545 117.742 247.18 119.238C247.815 120.711 248.132 122.332 248.132 124.1C248.132 125.868 247.815 127.5 247.18 128.996C246.545 130.492 245.65 131.784 244.494 132.872C243.338 133.96 241.978 134.81 240.414 135.422C238.873 136.034 237.184 136.34 235.348 136.34ZM235.314 132.464C236.515 132.464 237.626 132.26 238.646 131.852C239.666 131.444 240.55 130.866 241.298 130.118C242.046 129.347 242.624 128.463 243.032 127.466C243.463 126.446 243.678 125.324 243.678 124.1C243.678 122.876 243.463 121.765 243.032 120.768C242.624 119.748 242.046 118.864 241.298 118.116C240.55 117.345 239.666 116.756 238.646 116.348C237.626 115.94 236.515 115.736 235.314 115.736C234.113 115.736 233.002 115.94 231.982 116.348C230.985 116.756 230.101 117.345 229.33 118.116C228.582 118.864 227.993 119.748 227.562 120.768C227.154 121.765 226.95 122.876 226.95 124.1C226.95 125.301 227.154 126.412 227.562 127.432C227.993 128.452 228.582 129.347 229.33 130.118C230.078 130.866 230.962 131.444 231.982 131.852C233.002 132.26 234.113 132.464 235.314 132.464ZM256.863 123.148H268.729V126.888H256.863V123.148ZM257.237 136H252.817V112.2H270.191V115.906H257.237V136ZM278.512 123.148H290.378V126.888H278.512V123.148ZM278.886 136H274.466V112.2H291.84V115.906H278.886V136Z" fill="white"/>
</svg>

<svg xmlns="http://www.w3.org/2000/svg" width="300" height="167" fill="#fff"><path d="M9.48 54.24c-2.304 0-4.112-.648-5.424-1.944C2.76 51 2.112 49.128 2.112 46.68V37.2h3.12v9.36c0 1.728.368 2.984 1.104 3.768.752.784 1.808 1.176 3.168 1.176s2.408-.392 3.144-1.176 1.104-2.04 1.104-3.768V37.2h3.072v9.48c0 2.448-.656 4.32-1.968 5.616-1.296 1.296-3.088 1.944-5.376 1.944zM21.194 54V37.2h6.912c1.488 0 2.76.24 3.816.72 1.072.48 1.896 1.168 2.472 2.064s.864 1.96.864 3.192-.288 2.296-.864 3.192-1.4 1.584-2.472 2.064c-1.056.48-2.328.72-3.816.72h-5.184l1.392-1.464V54h-3.12zm3.12-5.976-1.392-1.512h5.04c1.376 0 2.408-.288 3.096-.864.704-.592 1.056-1.416 1.056-2.472 0-1.072-.352-1.896-1.056-2.472-.688-.576-1.72-.864-3.096-.864h-5.04l1.392-1.536v9.72zM5.664 83V68.84H.096V66.2h14.256v2.64H8.784V83h-3.12zm18.667.24c-1.312 0-2.52-.216-3.624-.648s-2.064-1.032-2.88-1.8a8.323 8.323 0 0 1-1.896-2.736c-.448-1.056-.672-2.208-.672-3.456s.224-2.392.672-3.432a8.004 8.004 0 0 1 1.896-2.736c.816-.784 1.776-1.392 2.88-1.824s2.304-.648 3.6-.648c1.312 0 2.512.216 3.6.648a8.664 8.664 0 0 1 2.88 1.824 8.004 8.004 0 0 1 1.896 2.736c.448 1.04.672 2.184.672 3.432s-.224 2.4-.672 3.456-1.08 1.968-1.896 2.736-1.776 1.368-2.88 1.8c-1.088.432-2.28.648-3.576.648zm-.024-2.736c.848 0 1.632-.144 2.352-.432s1.344-.696 1.872-1.224a5.835 5.835 0 0 0 1.224-1.872c.304-.72.456-1.512.456-2.376s-.152-1.648-.456-2.352a5.507 5.507 0 0 0-1.224-1.872 5.34 5.34 0 0 0-1.872-1.248c-.72-.288-1.504-.432-2.352-.432s-1.632.144-2.352.432a5.65 5.65 0 0 0-1.872 1.248 5.815 5.815 0 0 0-1.248 1.872c-.288.704-.432 1.488-.432 2.352 0 .848.144 1.632.432 2.352.304.72.72 1.352 1.248 1.896.528.528 1.152.936 1.872 1.224s1.504.432 2.352.432zm7.94 32.357V97.928L77.457 37.1h23.29L56.496 97.928l-10.823-3.151h75.487v18.084H32.247zM83.896 133v-20.139l.685-18.084V76.83h20.961V133H83.896zm85.002 1.644c-7.855 0-14.887-1.918-21.098-5.754-6.211-3.927-11.097-9.59-14.659-16.988s-5.343-16.349-5.343-26.852 1.781-19.454 5.343-26.852 8.448-13.015 14.659-16.851c6.211-3.927 13.243-5.891 21.098-5.891 7.946 0 14.979 1.964 21.098 5.891 6.211 3.836 11.097 9.453 14.659 16.851s5.343 16.349 5.343 26.852-1.781 19.454-5.343 26.852-8.448 13.061-14.659 16.988c-6.119 3.836-13.152 5.754-21.098 5.754zm0-18.769c3.745 0 6.987-1.05 9.727-3.151 2.831-2.101 5.023-5.434 6.576-10.001 1.644-4.567 2.466-10.458 2.466-17.673s-.822-13.106-2.466-17.673c-1.553-4.567-3.745-7.9-6.576-10.001-2.74-2.101-5.982-3.151-9.727-3.151-3.653 0-6.896 1.05-9.727 3.151-2.74 2.101-4.932 5.434-6.576 10.001-1.553 4.567-2.329 10.458-2.329 17.673s.776 13.106 2.329 17.673c1.644 4.567 3.836 7.9 6.576 10.001 2.831 2.101 6.074 3.151 9.727 3.151zM227.58 104l46.366-67.9h11.543L239.123 104H227.58zm5.917-31.234c-3.298 0-6.208-.744-8.73-2.231-2.522-1.552-4.527-3.718-6.014-6.499-1.423-2.845-2.134-6.176-2.134-9.991s.711-7.113 2.134-9.894c1.487-2.781 3.492-4.947 6.014-6.499s5.432-2.328 8.73-2.328 6.208.776 8.73 2.328 4.494 3.718 5.917 6.499 2.134 6.079 2.134 9.894-.711 7.146-2.134 9.991c-1.423 2.781-3.395 4.947-5.917 6.499-2.522 1.487-5.432 2.231-8.73 2.231zm0-7.954c2.134 0 3.848-.873 5.141-2.619 1.293-1.811 1.94-4.527 1.94-8.148s-.647-6.305-1.94-8.051c-1.293-1.811-3.007-2.716-5.141-2.716-2.069 0-3.783.905-5.141 2.716-1.293 1.746-1.94 4.43-1.94 8.051 0 3.557.647 6.24 1.94 8.051 1.358 1.811 3.072 2.716 5.141 2.716zm46.075 39.964c-3.233 0-6.143-.744-8.73-2.231-2.522-1.552-4.494-3.718-5.917-6.499-1.423-2.845-2.134-6.176-2.134-9.991s.711-7.113 2.134-9.894 3.395-4.947 5.917-6.499c2.587-1.552 5.497-2.328 8.73-2.328 3.363 0 6.305.776 8.827 2.328s4.494 3.718 5.917 6.499 2.134 6.079 2.134 9.894-.711 7.146-2.134 9.991c-1.423 2.781-3.395 4.947-5.917 6.499-2.522 1.487-5.464 2.231-8.827 2.231zm0-7.954c2.134 0 3.848-.873 5.141-2.619 1.293-1.811 1.94-4.527 1.94-8.148 0-3.557-.647-6.24-1.94-8.051s-3.007-2.716-5.141-2.716c-2.069 0-3.783.905-5.141 2.716-1.293 1.746-1.94 4.43-1.94 8.051s.647 6.337 1.94 8.148c1.358 1.746 3.072 2.619 5.141 2.619zm-44.224 39.518c-1.859 0-3.57-.306-5.134-.918s-2.924-1.462-4.08-2.55a11.803 11.803 0 0 1-2.686-3.876c-.635-1.496-.952-3.128-.952-4.896s.317-3.389.952-4.862a11.344 11.344 0 0 1 2.686-3.876c1.156-1.111 2.516-1.972 4.08-2.584s3.264-.918 5.1-.918c1.859 0 3.559.306 5.1.918 1.564.612 2.924 1.473 4.08 2.584a11.344 11.344 0 0 1 2.686 3.876c.635 1.473.952 3.094.952 4.862s-.317 3.4-.952 4.896-1.53 2.788-2.686 3.876-2.516 1.938-4.08 2.55c-1.541.612-3.23.918-5.066.918zm-.034-3.876c1.201 0 2.312-.204 3.332-.612s1.904-.986 2.652-1.734a8.274 8.274 0 0 0 1.734-2.652c.431-1.02.646-2.142.646-3.366s-.215-2.335-.646-3.332a7.802 7.802 0 0 0-1.734-2.652 7.56 7.56 0 0 0-2.652-1.768c-1.02-.408-2.131-.612-3.332-.612s-2.312.204-3.332.612a8.003 8.003 0 0 0-2.652 1.768 8.244 8.244 0 0 0-1.768 2.652c-.408.997-.612 2.108-.612 3.332 0 1.201.204 2.312.612 3.332a8.656 8.656 0 0 0 1.768 2.686c.748.748 1.632 1.326 2.652 1.734s2.131.612 3.332.612zm21.549-9.316h11.866v3.74h-11.866v-3.74zm.374 12.852h-4.42v-23.8h17.374v3.706h-12.954V136zm21.275-12.852h11.866v3.74h-11.866v-3.74zm.374 12.852h-4.42v-23.8h17.374v3.706h-12.954V136z"/></svg>
